img/money.svg

<svg width="25" height="25" viewBox="0 0 25 25" fill="none" xmlns="http://www.w3.org/2000/svg">
<path d="M6.80969 13.9072V9.90723H14.8097V13.9072" stroke="#96A0B5" stroke-width="1.5" stroke-linecap="round" stroke-linejoin="round"/>
<path d="M14.8097 9.90723H15.8097V5.90723H7.80969V9.90723" stroke="#96A0B5" stroke-width="1.5" stroke-linecap="round" stroke-linejoin="round"/>
<path d="M18.6381 15.0788C20.2002 16.6409 20.2002 19.1735 18.6381 20.7356C17.076 22.2977 14.5434 22.2977 12.9813 20.7356C11.4192 19.1735 11.4192 16.6409 12.9813 15.0788C14.5434 13.5167 17.076 13.5167 18.6381 15.0788Z" stroke="#96A0B5" stroke-width="1.5" stroke-linecap="round" stroke-linejoin="round"/>
<path d="M6.80969 17.9072V21.9072H15.8097" stroke="#96A0B5" stroke-width="1.5" stroke-linecap="round" stroke-linejoin="round"/>
<path d="M15.8097 13.9072H5.80969V17.9072H11.8097" stroke="#96A0B5" stroke-width="1.5" stroke-linecap="round" stroke-linejoin="round"/>
</svg>

<svg width="25" height="25" fill="none" xmlns="http://www.w3.org/2000/svg"><path d="M6.81 13.907v-4h8v4M14.81 9.907h1v-4h-8v4M18.638 15.079a4 4 0 1 1-5.657 5.657 4 4 0 0 1 5.657-5.657Z" stroke="#96A0B5" stroke-width="1.5" stroke-linecap="round" stroke-linejoin="round"/><path d="M6.81 17.907v4h9M15.81 13.907h-10v4h6" stroke="#96A0B5" stroke-width="1.5" stroke-linecap="round" stroke-linejoin="round"/></svg>
